X:1
T:O Church of God, Arise!
T:John Robson Sweney (1837-1899)
T:O Church of God, Arise!
T:Public Domain
T:Public Domain
T:Public Domain
T:Public Domain
C:John Robson Sweney (1837-1899)
Z:Public Domain
%%score ( 1 2 ) ( 3 4 )
L:1/8
M:4/4
K:A
V:1 treble 
V:2 treble 
V:3 bass 
V:4 bass 
V:1
 [CE]2 | [CA]>[CA] [CA]>[CA] [CA]3 [DA] | [Ec]>[Ec] [Ec]>[Ec] [Ec]3 [Ec] | %3
w: 1.~O|Church of God, a- rise! Reach|out thy help- ing hand, And|
w: 2.~O|Church of God, a- rise! Thy|bor- ders wide ex- tend, And|
w: 3.~O|Church of God, a- rise! The|grand old chor- al strain Of|
 [Ed]>[Ed] [Ed]>[Ed] [Ec]>[EB] [EA]>[Ec] | [^DB]>[DA] [DG]>[DA] [EB]2 (E=D) | %5
w: like a trum- pet let thy voice Go|forth to ev- ’ry land; Lay *|
w: o’er the earth’s re- mot- est bounds Thy|her- alds quick- ly send; Thine *|
w: peace on earth, good will to man, That|rang on Ju- dah’s plain, O’er *|
 [CE]>[B,D] [A,C]>[CE] [CA]3 A | A>E [EA]>[EB] [Ec]3 [Ec] | %7
w: thine ar- mor down, Nor cease|day or night, To lift the|
w: mies now are great, But great-|they must be, For ev- ’ry|
w: the world shall ring, And e-|far and wide, And then the|
 [=Ge]>[Ge] [Ge]>[Ge] [Fe]>[Fd] [FA]>[=FB] | [Ec]>[Ec] [Ec]>[DB] [CA]2 ||"^Refrain" E>C | %10
w: Gos- pel truth, And wield it for the|right. * * * *||
w: ev- ’ry clime Shall yet re- joice in|thee. Then a- rise in|thy glo-|
w: Lord, shall come, And claim His faith- ful|bride. * * * *||
 (z2 E>E E2) A>E | (z2 E>E E)E [Ec]2 | [Fd]2 [Fd]2 [FA]2 [=FB]2 | [Ec]6 c>d | (z2 ^E>E E2) G>B | %15
w: |||||
w: * * * ry, O|* * * of God,|’Tis the dawn of|the mor- row|* * * that greets|
w: |||||
 z2 F>F (CC) (C>C) | (^D2 D>D D z/) A/ G>A x/ | (E>E E>E E2) E2 | %18
w: |||
w: * * wait- * ing *|cloud * * * and mist and|must * * * * all|
w: |||
 [CA]>[CA] [CA]>[CA] [CA]2 [CA]>[DB] | [Ec]>[Fd] [Ec]>[DB] [CA]2 [EA]2 | %20
w: ||
w: a- way. But cloud and mist and|sha- dow must all be rolled|
w: ||
 [EB]>[EB] [EB]>[EB] [EB]2 [EB]>[Ec] | [Ed]>[Ee] [Ed]>[Ec] [EB]>B c>B | (z3/2 E/ E>E) [EA]>G B>A | %23
w: |||
w: a- way. Be- fore the world will|ush- er in the long ex- pect- ed|* * * day. * * *|
w: |||
 z3/2 D/ D>D D2 [DF]2 | [CE]2 [EA]2 [DA]2 [DG]2 | [CA]6 |] %26
w: |||
w: |||
w: |||
V:2
 x2 | x8 | x8 | x8 | x6 E2 | x7 A | A>E x6 | x8 | x6 || x2 | A6 x2 | c4 A2 x2 | x8 | x8 | c6 x2 | %15
w: ||||not|by|sword of|||||||||
w: ||||ar-|er|na- tion,||||Church|a- rise!|||thy|
w: ||||all|cho|King, thy|||||||||
 (A4 F2) A2 | A4- A3/2(^D D2) | B6 E2 | x8 | x8 | x8 | x8 | A4- x4 | F6 x2 | x8 | x6 |] %26
w: |||||||||||
w: eyes * But|sha- * dow *|be rolled|||||||||
w: |||||||||||
V:3
 [A,,A,]2 | [A,,E,]>[A,,E,] [A,,E,]>[A,,E,] [A,,E,]3 [A,,C] | A,>A, A,>A, A,3 A, | %3
w: ~|~ ~ ~ ~ ~ ~|~ ~ ~ ~ ~ ~|
 [G,B,]>[G,B,] [G,B,]>[G,B,] A,>[A,D] [A,C]>[A,,A,] | %4
w: ~ ~ ~ ~ ~ ~ ~ ~|
 [B,,F,]>[B,,F,] [B,,F,]>[B,,F,] E,F,[C,A,][B,,G,] | [A,,A,]>[A,,E,] [A,,E,]>[A,,A,] [A,,E,]3 A, | %6
w: ~ ~ ~ ~ ~ ~ ~ ~|~ ~ ~ ~ ~ ~|
 A,>E, [C,A,]>[E,G,] A,3 A, | [C,A,]>[C,A,] [C,A,]>[C,A,] [D,A,]>[D,A,] [D,A,]>[D,A,] | %8
w: ~ ~ ~ ~ ~ ~|Then a- rise in thy glo- ry, O|
 [E,A,]>[E,A,] [E,A,]>[E,G,] [A,,A,]2 || z2 | z2 [A,,C]>[A,,C] [A,,C]2 z2 | %11
w: Church, O Church of god,||a- rise! ’Tis|
 z2 [A,,A,]>[A,,A,] [A,,C][A,,C] [A,,A,]2 | [D,A,]2 [E,A,]2 [E,D]2 [D,A,]2 | %13
w: the dawn of the mor-|row, ’tis the dawn|
 [A,,A,]3 [A,,A,] [A,,A,]2 z2 | z2 [C,G,]>[C,G,] [C,G,]2 z2 | %15
w: of the mor-|row that greets|
 z2 [F,C]>[F,C] [F,A,][F,A,] [F,A,]>[F,A,] | [B,,F,]2 [B,,F,]>[B,,F,] [B,,F,][B,,F,] [B,,F,]2 x/ | %17
w: thy wait- ing eyes ~ ~|~ ~ ~ ~ ~ ~|
 [E,G,]>[E,G,] [E,G,]>[E,G,] [E,G,]2 E,2 | %18
w: ~ ~ ~ ~ ~ ~|
 [A,,E,]>[A,,E,] [A,,E,]>[A,,E,] [A,,E,]2 [A,,E,]>[A,,E,] | %19
w: ~ ~ ~ ~ ~ ~ ~|
 [A,,A,]>[A,,A,] [A,,A,]>[A,,A,] [A,,E,]2 [C,A,]2 | %20
w: ~ ~ ~ ~ Be- fore|
 [E,G,]>[E,G,] [E,G,]>[E,G,] [E,G,]2 [E,G,]>[E,A,] | [E,B,]>[E,C] [E,B,]>[E,A,] [E,G,]3/2 z/ z2 | %22
w: the world will ush- er in *||
 z3/2 [A,,C]/ [A,,C]>[A,,C] [A,,C] z z2 | z3/2 [D,A,]/ [D,A,]>[D,A,] [D,A,]2 [D,A,]2 | %24
w: ||
 [E,A,]2 [E,C]2 [E,B,]2 E,2 | [A,,E,]6 |] %26
w: ||
V:4
 x2 | x8 | A,>A, A,>A, A,3 A, | x4 A,3/2 x5/2 | x4 G,2 x2 | x7 A, | A,>E, x3/2 A,3 A, x/ | x8 | %8
w: ||~ ~ ~ ~ ~ ~|~|~|~|~ ~ ~ ~||
 x6 || x2 | x8 | x8 | x8 | x8 | x8 | x8 | x17/2 | x6 E,2 | x8 | x8 | x8 | x8 | x8 | x8 | x6 E,2 | %25
w: |||||||||~||||||||
 x6 |] %26
w: |

